X: 1
T: Brocca, The
M: 4/4
L: 1/8
R: reel
K: Ador
A,2 (3A,A,A, G,A,B,G, | A,2 CE ABAG | E3 D EFFD | G2 (3ABc BAGF |
EA,B,A, B,3 G, | A,2 CE ABAG | E3 D EFFD | G,A,B,G, A,B,CD :|
K:D
d2 (3ddd d2 fd | Adfd cdec | d2 AF DEFD | G2 G2 EF G2 |
 Addc dgfd | Adfd cdec | d2 (3ddd =cAGE | ED=CE DEFG |
Addc defg | a3 f gfed | (3=cde ec dcAG | A=c (3ccc cAGc |
AdcA dgfd | Adfd cdec | d2 (3ddd =cAGE | ED=CE DEED |
